assets/icons/message-icon.svg

<?xml version="1.0" encoding="utf-8"?>
<!-- Generator: Adobe Illustrator 25.4.1, SVG Export Plug-In . SVG Version: 6.00 Build 0)  -->
<svg version="1.1" id="Layer_1" xmlns="http://www.w3.org/2000/svg" xmlns:xlink="http://www.w3.org/1999/xlink" x="0px" y="0px"
	 viewBox="0 0 24 24" style="enable-background:new 0 0 24 24;" xml:space="preserve">
<style type="text/css">
	.st0{fill:#FFFFFF;}
</style>
<path class="st0" d="M22,7v9c0,1.1-0.9,2-2,2H6l-4,4V4c0-1.1,0.9-2,2-2h10.1C14,2.3,14,2.7,14,3s0,0.7,0.1,1H4v12h16V7.9
	C20.7,7.8,21.4,7.4,22,7 M16,3c0,1.7,1.3,3,3,3s3-1.3,3-3s-1.3-3-3-3S16,1.3,16,3z"/>
</svg>

<svg xmlns="http://www.w3.org/2000/svg" viewBox="0 0 24 24"><path d="M22 7V16C22 17.1 21.1 18 20 18H6L2 22V4C2 2.9 2.9 2 4 2H14.1C14 2.3 14 2.7 14 3S14 3.7 14.1 4H4V16H20V7.9C20.7 7.8 21.4 7.4 22 7M16 3C16 4.7 17.3 6 19 6S22 4.7 22 3 20.7 0 19 0 16 1.3 16 3Z" /></svg>
